priv/static/svgs/icons_new/shop-bank.svg

<svg width="32" height="32" viewBox="0 0 32 32" fill="none" xmlns="http://www.w3.org/2000/svg">
<path d="M16 5L4 9.94675V10.4964L4.52174 11.5957H27.4783L28 10.4964V9.94675L16 5Z" stroke="black" stroke-miterlimit="10" stroke-linecap="round" stroke-linejoin="round"/>
<path d="M20.1738 23.688V16.5427C20.1738 16.1054 20.3387 15.686 20.6323 15.3768C20.9258 15.0675 21.3239 14.8938 21.739 14.8938C22.1542 14.8938 22.5523 15.0675 22.8458 15.3768C23.1394 15.686 23.3043 16.1054 23.3043 16.5427V23.688" stroke="black" stroke-miterlimit="10" stroke-linecap="round" stroke-linejoin="round"/>
<path d="M14.4355 23.688V16.5427C14.4355 16.1054 14.6005 15.686 14.894 15.3768C15.1875 15.0675 15.5856 14.8938 16.0008 14.8938C16.4159 14.8938 16.814 15.0675 17.1075 15.3768C17.4011 15.686 17.566 16.1054 17.566 16.5427V23.688" stroke="black" stroke-miterlimit="10" stroke-linecap="round" stroke-linejoin="round"/>
<path d="M8.69531 23.688V16.5427C8.69531 16.1054 8.86022 15.686 9.15375 15.3768C9.44729 15.0675 9.84541 14.8938 10.2605 14.8938V14.8938C10.6757 14.8938 11.0738 15.0675 11.3673 15.3768C11.6608 15.686 11.8257 16.1054 11.8257 16.5427V23.688" stroke="black" stroke-miterlimit="10" stroke-linecap="round" stroke-linejoin="round"/>
<path d="M5.04297 13.2449V14.3441L6.08645 14.8938V24.2376" stroke="black" stroke-miterlimit="10" stroke-linecap="round" stroke-linejoin="round"/>
<path d="M25.9131 24.2376L25.9131 14.8938L26.9566 14.3441V13.2449" stroke="black" stroke-miterlimit="10" stroke-linecap="round" stroke-linejoin="round"/>
<path d="M4.52148 24.2375H27.478" stroke="black" stroke-miterlimit="10" stroke-linecap="round" stroke-linejoin="round"/>
<path d="M4.52148 27H27.478" stroke="black" stroke-miterlimit="10" stroke-linecap="round" stroke-linejoin="round"/>
</svg>

<svg width="32" height="32" viewBox="0 0 32 32" fill="none" xmlns="http://www.w3.org/2000/svg">
  <symbol id="item" viewBox="0 0 32 32" stroke-width="1" fill="none">
    <path d="M16 5 4 9.947v.55l.522 1.099h22.956l.522-1.1v-.55L16 5ZM20.174 23.688v-7.145c0-.438.165-.857.458-1.166.294-.31.692-.483 1.107-.483.415 0 .813.174 1.107.483.293.309.458.728.458 1.166v7.145M14.435 23.688v-7.145c0-.438.165-.857.459-1.166.293-.31.692-.483 1.107-.483.415 0 .813.174 1.107.483.293.309.458.728.458 1.166v7.145M8.695 23.688v-7.145c0-.438.165-.857.459-1.166.293-.31.691-.483 1.107-.483v0c.415 0 .813.174 1.106.483.294.309.459.728.459 1.166v7.145M5.043 13.245v1.1l1.043.549v9.344M25.913 24.238v-9.344l1.044-.55v-1.1M4.521 24.238h22.957M4.521 27h22.957" stroke="currentColor" stroke-miterlimit="10" stroke-linecap="round" stroke-linejoin="round"/>
  </symbol>
</svg>
